src/assets/icons/bnb-chain.svg

<svg width="14" height="14" viewBox="0 0 14 14" fill="none" xmlns="http://www.w3.org/2000/svg">
<path d="M8.35505 11.6256V13.1955L6.98046 14L5.64495 13.1955V11.6256L6.98046 12.43L8.35505 11.6256ZM1 6.19555L2.3355 7V9.69231L4.63518 11.0612V12.6311L1 10.4968V6.19555ZM12.9609 6.19555V10.5032L9.28664 12.6376V11.0677L11.5863 9.69879V7.00649L12.9609 6.19555ZM9.28013 4.06117L10.6547 4.86562V6.43559L8.35505 7.80445V10.5357L7.01954 11.3401L5.69055 10.5357V7.79796L3.30619 6.4291V4.85913L4.68078 4.05468L6.98046 5.42354L9.28013 4.06117ZM3.30619 7.55792L4.64169 8.36237V9.93234L3.30619 9.12789V7.55792ZM10.6547 7.55792V9.12789L9.31922 9.93234V8.36237L10.6547 7.55792ZM2.3355 2.69231L3.7101 3.49676L2.3355 4.3012V5.87118L1 5.06673V3.49676L2.3355 2.69231ZM11.6254 2.69231L13 3.49676V5.06673L11.6254 5.87118V4.3012L10.2899 3.49676L11.6254 2.69231ZM6.98046 2.69231L8.35505 3.49676L6.98046 4.3012L5.64495 3.49676L6.98046 2.69231ZM6.98046 0L10.6547 2.13438L9.31922 2.93883L7.01954 1.56997L4.67427 2.93883L3.33876 2.13438L6.98046 0Z" fill="white"/>
</svg>

<svg width="14" height="14" fill="none" xmlns="http://www.w3.org/2000/svg"><path d="M8.355 11.626v1.57L6.98 14l-1.335-.805v-1.57l1.335.805 1.375-.804ZM1 6.196 2.336 7v2.692l2.3 1.37v1.57L1 10.496V6.196Zm11.96 0v4.307l-3.673 2.135v-1.57l2.3-1.37V7.007l1.374-.81ZM9.28 4.06l1.375.805v1.57l-2.3 1.368v2.732l-1.335.804-1.33-.804V7.798L3.307 6.429V4.86l1.375-.804 2.3 1.369 2.3-1.363ZM3.306 7.558l1.336.804v1.57l-1.336-.804v-1.57Zm7.349 0v1.57l-1.336.804v-1.57l1.336-.804Zm-8.32-4.866 1.375.805-1.374.804v1.57L1 5.067v-1.57l1.336-.805Zm9.29 0L13 3.497v1.57l-1.375.804v-1.57l-1.335-.804 1.335-.805Zm-4.645 0 1.375.805L6.98 4.3l-1.335-.804 1.335-.805ZM6.98 0l3.675 2.134-1.336.805-2.3-1.369-2.345 1.369-1.335-.805L6.98 0Z" fill="currentColor"/></svg>
